tools/download-figma-icons/icons/solid/globus.svg

<svg width="24" height="24" viewBox="0 0 24 24" fill="none" xmlns="http://www.w3.org/2000/svg">
<path fill-rule="evenodd" clip-rule="evenodd" d="M12.75 3.75V5.115L16.38 4.5075C16.5675 4.485 16.755 4.5225 16.9125 4.62L20.82 7.17C19.965 3.0825 16.3425 0 12 0C11.49 0 10.9875 0.045 10.5 0.1275L12.6225 3.3375C12.705 3.4575 12.75 3.6 12.75 3.75ZM19.9351 13.2452L17.7151 11.2502H15.0001V12.577L16.9501 16.5077C18.2018 15.6902 19.2301 14.5652 19.9351 13.2452ZM3.00007 8.99978C3.00007 7.64303 3.30007 6.35228 3.84007 5.19728L7.50007 7.88228V11.9998C7.50007 12.2473 7.62757 12.488 7.83757 12.6223L9.75007 13.9048V17.7148C5.87257 16.7173 3.00007 13.1923 3.00007 8.99978ZM16.3352 6.03736L12.1202 6.74237C11.9102 6.77237 11.6852 6.71237 11.512 6.56987C11.3477 6.42812 11.2502 6.21737 11.2502 5.99987V3.97486L8.97023 0.524865C7.18523 1.16236 5.65523 2.35486 4.59773 3.89312L8.69273 6.89312C8.88698 7.03487 9.00023 7.25987 9.00023 7.49987V11.5949L10.9127 12.8774C11.1227 13.0124 11.2502 13.2524 11.2502 13.4999V17.9699C11.4977 17.9924 11.7452 17.9999 12.0002 17.9999C13.2977 17.9999 14.5277 17.7299 15.637 17.2356L13.5745 13.0806C13.5302 12.9824 13.5002 12.8631 13.5002 12.7499V10.4999C13.5002 10.0874 13.8377 9.74987 14.2502 9.74987H18.0002C18.1877 9.74987 18.3602 9.81737 18.5027 9.94487L20.5577 11.7899C20.8352 10.9349 20.9927 10.0274 21.0002 9.08311L16.3352 6.03736ZM17.3175 17.2725C17.9175 16.8975 18.4725 16.4625 18.9675 15.9675C19.26 15.675 19.74 15.675 20.0325 15.9675C20.325 16.26 20.325 16.74 20.0325 17.0325C18.15 18.915 15.5325 20.055 12.75 20.22V22.5H15.75C16.1648 22.5 16.5 22.8352 16.5 23.25C16.5 23.6647 16.1648 24 15.75 24H8.25C7.83525 24 7.5 23.6647 7.5 23.25C7.5 22.8352 7.83525 22.5 8.25 22.5H11.25V20.22C11.175 20.22 11.1 20.2125 11.0325 20.205C10.635 20.175 10.2375 20.1225 9.855 20.0475C4.6725 19.0425 0.75 14.4675 0.75 8.99996C0.75 6.98996 1.2675 5.04746 2.1975 3.35996C2.2078 3.33936 2.2181 3.32034 2.22832 3.30144C2.24044 3.27906 2.25246 3.25686 2.26425 3.23246C2.2725 3.22496 2.28 3.20996 2.28 3.19496C2.28 3.18496 2.28667 3.17496 2.29333 3.16496C2.29667 3.15996 2.3 3.15496 2.3025 3.14996C2.31 3.13496 2.3175 3.12746 2.325 3.11996C2.7825 2.33246 3.33 1.60496 3.9675 0.967459C4.26 0.674959 4.74 0.674959 5.0325 0.967459C5.325 1.25996 5.325 1.73996 5.0325 2.03246C4.6125 2.44496 4.2375 2.90246 3.915 3.39746C3.63 3.80996 3.38925 4.25246 3.1725 4.70996C2.5725 6.02246 2.25 7.49246 2.25 8.99996C2.25 13.605 5.45175 17.4675 9.75 18.4875C10.2375 18.6 10.74 18.6825 11.25 18.72C11.4975 18.7425 11.745 18.75 12 18.75C13.4025 18.75 14.7675 18.4725 16.005 17.9475C16.4625 17.7525 16.905 17.5275 17.3175 17.2725Z" fill="black"/>
</svg>

<svg xmlns="http://www.w3.org/2000/svg" width="24" height="24" fill="none" viewBox="0 0 24 24"><path fill="currentColor" fill-rule="evenodd" d="M12.75 3.75v1.365l3.63-.607a.82.82 0 0 1 .533.112l3.907 2.55C19.965 3.082 16.343 0 12 0q-.767.002-1.5.128l2.123 3.21c.082.12.127.262.127.412m7.185 9.495-2.22-1.995H15v1.327l1.95 3.93a8.9 8.9 0 0 0 2.985-3.262M3 9c0-1.357.3-2.648.84-3.803L7.5 7.882V12c0 .247.128.488.338.622l1.912 1.283v3.81C5.873 16.717 3 13.192 3 9m13.335-2.963-4.215.705a.8.8 0 0 1-.608-.172.76.76 0 0 1-.262-.57V3.975L8.97.525a9 9 0 0 0-4.372 3.368l4.095 3A.75.75 0 0 1 9 7.5v4.095l1.913 1.282c.21.135.337.375.337.623v4.47c.248.022.495.03.75.03a8.9 8.9 0 0 0 3.637-.764l-2.062-4.155a.8.8 0 0 1-.075-.331V10.5c0-.413.338-.75.75-.75H18a.74.74 0 0 1 .503.195l2.055 1.845A9 9 0 0 0 21 9.083zm.982 11.236c.6-.375 1.156-.81 1.65-1.306a.756.756 0 0 1 1.066 0 .756.756 0 0 1 0 1.065c-1.883 1.883-4.5 3.023-7.283 3.188v2.28h3a.75.75 0 1 1 0 1.5h-7.5a.75.75 0 1 1 0-1.5h3v-2.28c-.075 0-.15-.008-.217-.015-.398-.03-.795-.082-1.178-.157C4.673 19.043.75 14.468.75 9c0-2.01.518-3.953 1.447-5.64l.031-.059.036-.069a.05.05 0 0 0 .016-.037q.002-.015.013-.03l.01-.015q.01-.021.022-.03A10.5 10.5 0 0 1 3.967.967a.756.756 0 0 1 1.065 0 .756.756 0 0 1 0 1.065 8 8 0 0 0-1.117 1.365 9.3 9.3 0 0 0-.743 1.313A10.3 10.3 0 0 0 2.25 9c0 4.605 3.202 8.468 7.5 9.488a10 10 0 0 0 2.25.262c1.402 0 2.768-.277 4.005-.802.457-.195.9-.42 1.313-.675" clip-rule="evenodd"/></svg>
